X:193
T:Fantocini, The
M:6/8
L:1/8
B:Thompson's Compleat Collection of 200 Favourite Country Dances, vol. 3 (London, 1773)
Z:Transcribed and edited by Flynn Titford-Mock, 2007
Z:abc's:AK/Fiddler's Companion
K:F
fcc "tr"c3 | dAA "tr"A3 | GBA GAF | EFG C3 | fcc "tr"c3 | dAA A2"tr"f | edc GA=B | c3 c3 :|
|: gcc "tr"c3 | acc "tr"c3 | dcB AGF | EFG C3 | fcc "tr"c3 | dAA A3 | GBA GFE | [A,3F3][A,3F3] :|

